X: 11121
T: Duke Of Leinster, The
R: reel
M: 4/4
K: Gmajor
G2BG dGBG|d2eB dBAB|G2BG dGBG|dBAB GEDE|
G2BG dGBG|dBeB dBAB|GB~B2 dB~B2|1 dBAB GEDE:|2 dBAB G3e||
dega bg~g2|agbg ageg|dega bage|dBAB GEDz|
dega bg~g2|agbg agef|g2fg efge|1 dBAB G3e:|2 dBAB GEDE||

